X: 7438
T:Michael Turner's Waltz
R:Waltz
M:3/4
O:England
K:G
GA|\
B2 BD cD| d2d2 gf| e2e2 ge| d2d2 GA|\
B2BD cD| d2d2 cA| G2GB AF| G4 ::
AB|\
c2 cd Bc| A4 Bc| d2 de cd| B2 B2 gf|\
e2 e2 ge| d2d2 GA| B2Bc BA| G4 |]
